!!!COM: Bach, Johann Sebastian
!!!OPR: Die Kunst der Fuge
!!!XEN: The Art of Fugue
!!!OTL:
!!!OMV: 1
!!!SCT: BWV 1080
!!!SCA: Thematisch-systematisches Verzeichnis der musikalischen Werke Johann Sebastian Bach: Bach-Werke-Verzeichnis (Schmieder)
!!!YOR: Bach Gesellschaft Edition xxv,1
!!!EED: Frances Bennion
!!!ENC: Frances Bennion
!!!CDT: 1685/3//-1750/7/28/
!!!OCY: Deutschland
!!!YEC: Copyright (c) 1994, 2000 Center for Computer Assisted Research in the Humanities
!!!YEM: Rights to all derivative editions reserved.
!!!YEM: Refer to licensing agreement for further details.
!!!YEN: United States of America
**kern	**kern	**kern	**kern
*k[b-]	*k[b-]	*k[b-]	*k[b-]
*d:	*d:	*d:	*d:
*clefG	*clefG	*clefC	*clefC
*M2/2	*M2/2	*M2/2	*M2/2
=1	=1	=1	=1
1r	2d	1r	1r
.	2a	.	.
=2	=2	=2	=2
1r	2f	1r	1r
.	2d	.	.
=3	=3	=3	=3
1r	2c#	1r	1r
.	4d	.	.
.	4e	.	.
=4	=4	=4	=4
1r	[2f	1r	1r
.	8f]	.	.
.	8g	.	.
.	8f	.	.
.	8e	.	.
=5	=5	=5	=5
2a	4d	1r	1r
.	4e	.	.
2dd	4f	.	.
.	4g	.	.
=6	=6	=6	=6
2cc	4a	1r	1r
.	8A	.	.
.	8B	.	.
2a	8c	.	.
.	8A	.	.
.	[4f	.	.
=7	=7	=7	=7
2g#	8f]	1r	1r
.	8B	.	.
.	4.e	.	.
4a	.	.	.
.	8f	.	.
4b	8e	.	.
.	8d	.	.
=8	=8	=8	=8
[2cc	4e	1r	1r
.	4f#	.	.
8cc]	[2g	.	.
8dd	.	.	.
8cc	.	.	.
8b-	.	.	.
=9	=9	=9	=9
8a	4g]	1r	2D
8d	.	.	.
2dd	4f	.	.
.	2e	.	2A
4cc#	.	.	.
=10	=10	=10	=10
8dd	4.d	1r	2F
8a	.	.	.
4.cc	.	.	.
.	8e	.	.
.	4.f	.	2D
8a	.	.	.
[4b-	.	.	.
.	8d	.	.
=11	=11	=11	=11
8b-]	4.g	1r	2C#
8e	.	.	.
[2.a	.	.	.
.	8g	.	.
.	8f	.	4D
.	8e	.	.
.	8d	.	4E
.	8c#	.	.
=12	=12	=12	=12
8a]	4d	1r	[2F
4cc	.	.	.
.	2g	.	.
8b	.	.	.
[2cc	.	.	8F]
.	.	.	8G
.	4c	.	8F
.	.	.	8E
=13	=13	=13	=13
8cc]	4.f	2A	2D
8d	.	.	.
4.cc	.	.	.
.	8e	.	.
.	4.f	2d	2r
8a	.	.	.
[4b	.	.	.
.	8G#	.	.
=14	=14	=14	=14
4b]	2.e	2c	4r
8a	.	.	8AA
8g#	.	.	8BB
2a	.	2A	8C
.	.	.	8AA
.	8d	.	[4F
.	8c	.	.
=15	=15	=15	=15
2b	8d	2G#	8F]
.	8f	.	8BB
.	8e	.	4.E
.	8d	.	.
4cc	4c	4A	.
.	.	.	8F
4dd	4r	4B	8E
.	.	.	8D
=16	=16	=16	=16
8g	1r	[2c	8E
8b-	.	.	8G
4.a	.	.	8F#
.	.	.	8A
.	.	8c]	2G
8b-	.	8d	.
8a	.	8c	.
[8g	.	8B-	.
=17	=17	=17	=17
8g]	1r	[2A	2.D
8e	.	.	.
8f	.	.	.
8d	.	.	.
[2b-	.	8A]	.
.	.	8F	.
.	.	4G	8E
.	.	.	8D
=18	=18	=18	=18
8b-]	1r	[2c	4E
8g	.	.	.
4a	.	.	8F
.	.	.	8E
[2dd	.	8c]	4F#
.	.	8A	.
.	.	4B	8G
.	.	.	8F#
=19	=19	=19	=19
8dd]	1r	[2e	4G#
8b	.	.	.
4cc	.	.	8A
.	.	.	8G#
[2ff	.	8e]	4A
.	.	8c#	.
.	.	4d	8B-
.	.	.	8A
=20	=20	=20	=20
8ff]	1r	[2g	4B
8dd	.	.	.
4ee	.	.	8c
.	.	.	8B
4a	.	8g]	4c#
.	.	8e	.
[4dd	.	4f	8d
.	.	.	8G#
=21	=21	=21	=21
8dd]	1r	4.e	[2A
8b	.	.	.
4cc	.	.	.
.	.	8a	.
4f	.	4.d	8A]
.	.	.	8F
4b-	.	.	[4G
.	.	8e	.
=22	=22	=22	=22
2a	1r	4c#	8G]
.	.	.	8E
.	.	8d	4.F
.	.	8A	.
4d	.	4.B	.
.	.	.	8D
[4g	.	.	4E
.	.	8c#	.
=23	=23	=23	=23
8g]	2d	4d	[2D
8e	.	.	.
8f	.	[2.A	.
8dd	.	.	.
[2e	2a	.	8D]
.	.	.	8BB
.	.	.	4C#
=24	=24	=24	=24
8e]	2f	2A]	4.D
8d	.	.	.
2a	.	.	.
.	.	.	8C
.	2d	2B-	2BB-
4g	.	.	.
=25	=25	=25	=25
2a	2c#	8r	4.AA
.	.	8E	.
.	.	4.A	.
.	.	.	8GG
2r	4d	.	8FF
.	.	8B-	8GG
.	4e	8A	8FF
.	.	8G	8EE
=26	=26	=26	=26
1r	[2f	4A	8DD
.	.	.	8FF
.	.	4B	8EE
.	.	.	8DD
.	8f]	[2c	4.AA
.	8g	.	.
.	8f	.	.
.	8e	.	8FF
=27	=27	=27	=27
1r	4d	8c]	4.BB-
.	.	8A	.
.	4.g	4B-	.
.	.	.	8GG
.	.	4A	4.D
.	8e	.	.
.	4f	[4d	.
.	.	.	8F
=28	=28	=28	=28
1r	4e	8d]	4.A
.	.	8B	.
.	4.a	4c	.
.	.	.	8AA
.	.	4B	4EE
.	8f#	.	.
.	4g	[4e	4r
=29	=29	=29	=29
2a	4.f#	8e]	2r
.	.	8A	.
.	.	4.d	.
.	8dd	.	.
2ee	2g#	.	2E
.	.	8d	.
.	.	8c	.
.	.	8B	.
=30	=30	=30	=30
2cc	4a	8c	2A
.	.	8d	.
.	8r	4.e	.
.	8A	.	.
2a	4c	.	[2F
.	.	8e	.
.	4A	8d	.
.	.	8c	.
=31	=31	=31	=31
2g#	4d	2B	8F]
.	.	.	8F
.	4f	.	8E
.	.	.	8D
4a	4e	4c	8C
.	.	.	8D
4b	4d	4G#	8C
.	.	.	8BB
=32	=32	=32	=32
[2cc	4c	8A	2AA
.	.	8G	.
.	2a	8F#	.
.	.	8E	.
8cc]	.	4F#	2D
8dd	.	.	.
8cc	4d	[4G	.
8b-	.	.	.
=33	=33	=33	=33
4a	4e	8G]	2C#
.	.	8G	.
2r	4.a	8F	.
.	.	8E	.
.	.	8F	2AA
.	8g	8E	.
[4a	8f	8D	.
.	8e	8C#	.
=34	=34	=34	=34
8a]	[1d	4D	2FF#
8cc	.	.	.
8b-	.	2.r	.
8a	.	.	.
8b-	.	.	4GG
8a	.	.	.
8g	.	.	4AA
8f#	.	.	.
=35	=35	=35	=35
4.g	8d]	1r	[2BB-
.	8d	.	.
.	4.g	.	.
8b-	.	.	.
4.e	.	.	8BB-]
.	8g	.	8C
.	[4c	.	8BB-
8f#	.	.	8AA
=36	=36	=36	=36
4.g	8c]	1r	[2GG
.	8A	.	.
.	4B-	.	.
8e	.	.	.
4.c#	[2A	.	8GG]
.	.	.	8EE
.	.	.	4FF
8a	.	.	.
=37	=37	=37	=37
4.d	8A]	1r	[2BB-
.	8F	.	.
.	4G	.	.
8f	.	.	.
4.e	[2c	.	8BB-]
.	.	.	8GG
.	.	.	4AA
8cc	.	.	.
=38	=38	=38	=38
4.f	8c]	1r	[2D
.	8A	.	.
.	4B	.	.
8a	.	.	.
4.g	[2e	.	8D]
.	.	.	8BB
.	.	.	4C
8ee	.	.	.
=39	=39	=39	=39
4.a	8e]	1r	[2F
.	8c#	.	.
.	4d	.	.
8cc	.	.	.
4.b	[2g	.	8F]
.	.	.	8D
.	.	.	4E
8gg	.	.	.
=40	=40	=40	=40
2cc#	8g]	2E	4.AA
.	8a	.	.
.	4b-	.	.
.	.	.	8G
4dd	[2a	2A	8F
.	.	.	8E
[4ee	.	.	8D
.	.	.	8C#
=41	=41	=41	=41
8ee]	2a_	2F	4.D
8cc#	.	.	.
[2dd	.	.	.
.	.	.	8FF
.	8a]	2D	2BB-
.	8f	.	.
8dd]	4g	.	.
8ee	.	.	.
=42	=42	=42	=42
8ff	4.a]	2C#	[1AA
8ee	.	.	.
4.gg	.	.	.
.	8b-	.	.
.	4a	4D	.
8ff	.	.	.
8ee	[4g	4E	.
8dd	.	.	.
=43	=43	=43	=43
8cc#	4g]	[2F	4.AA]
8a	.	.	.
4.dd	8f	.	.
.	8d	.	8BB-
.	4.a	8F]	8AA
8b	.	8G	8GG
[4cc	.	8F	4AA
.	8g	8E	.
=44	=44	=44	=44
4cc]	8f#	2.D	4.BB-
.	8d	.	.
4b-	4.g	.	.
.	.	.	8GG
4a	.	.	[2D
.	8e	.	.
4r	[4f	8A	.
.	.	8F	.
=45	=45	=45	=45
1r	8f]	4.B-	4D]
.	8d	.	.
.	4.g	.	2E
.	.	8G	.
.	.	4.c	.
.	8e	.	.
.	[4a	.	[4F
.	.	8A	.
=46	=46	=46	=46
1r	8a]	4d	4.F]
.	8f	.	.
.	4.b-	4G	.
.	.	.	8D
.	.	4c	4.E
.	8g	.	.
.	[4a	4F	.
.	.	.	8C#
=47	=47	=47	=47
1r	8a]	4B-	4.D
.	8f	.	.
.	2g	4E	.
.	.	.	8BB
.	.	2A	8C#
.	.	.	8AA
.	8f	.	[4D
.	8d	.	.
=48	=48	=48	=48
1r	2a	4E	8D]
.	.	.	8C
.	.	4.A	8BB
.	.	.	8AA
.	[2dd	.	2BB
.	.	8G#	.
.	.	8F#	.
.	.	8G#	.
=49	=49	=49	=49
2ee	8dd]	4.A	4AA
.	8cc#	.	.
.	8b	.	2.r
.	8cc#	8G	.
2aa	8dd	8F	.
.	8a	8E	.
.	[4ee	8D	.
.	.	8C#	.
=50	=50	=50	=50
2ff	8ee]	4D	1r
.	8a	.	.
.	4dd	8F	.
.	.	8D	.
2dd	8r	4B-	.
.	8f	.	.
.	[4b-	8G	.
.	.	8E	.
=51	=51	=51	=51
2cc#	8b-]	4.A	1r
.	8e	.	.
.	4.a	.	.
.	.	8f	.
4dd	.	4B	.
.	8g	.	.
4ee	8f	4c#	.
.	8e	.	.
=52	=52	=52	=52
[2ff	8d	4d	1r
.	8a	.	.
.	8dd	8B	.
.	8b	8G	.
8ff]	8g	4c	.
8gg	8e	.	.
8ff	[4cc	8A	.
8ee	.	8F	.
=53	=53	=53	=53
4.dd	4cc]	8B-	1r
.	.	8d	.
.	4b-	4.g	.
8ee	.	.	.
4cc#	2a	.	.
.	.	8e	.
8dd	.	[4f	.
8ff	.	.	.
=54	=54	=54	=54
[2b-	4.g	8f]	1r
.	.	8f	.
.	.	8e	.
.	8f	8d	.
8b-]	[2e	2c#	.
8b-	.	.	.
8a	.	.	.
8g	.	.	.
=55	=55	=55	=55
2f	4e]	8d	1r
.	.	8c	.
.	8d	8B-	.
.	8c#	8A	.
2b-	4d	8G	.
.	.	8A	.
.	[4g	8B-	.
.	.	8c	.
=56	=56	=56	=56
2.a	4.g]	8d	2D
.	.	8A	.
.	.	4.d	.
.	8f	.	.
.	4.e	.	2A
.	.	8B	.
[4ee	.	[4c#	.
.	8e	.	.
=57	=57	=57	=57
8ee]	2.a	8c#]	2F
8cc#	.	8e	.
8dd	.	8A	.
8ee	.	8c#	.
8ff	.	4d	2D
8dd	.	.	.
[4gg	8g	8B-	.
.	8b-	8G	.
=58	=58	=58	=58
8gg]	[2a	2E	2C#
8ee	.	.	.
8aa	.	.	.
8gg	.	.	.
8ff	8a]	4F	4D
8ee	8g	.	.
8dd	8f	4G	4E
8cc#	8e	.	.
=59	=59	=59	=59
8dd	2.d	2A	[2F
8cc	.	.	.
8b-	.	.	.
8a	.	.	.
[2g	.	4B	8F]
.	.	.	8G
.	4e	4c#	8F
.	.	.	8E
=60	=60	=60	=60
8g]	4A	4d	[2D
8e	.	.	.
8f	2r	2r	.
8d	.	.	.
[2a	.	.	8D]
.	.	.	8E-
.	4e-	4F#	8D
.	.	.	8C
=61	=61	=61	=61
8a]	2d	8G	[2BB-
8f#	.	8A	.
8g	.	4B-	.
8b-	.	.	.
[2cc	4r	4r	8BB-]
.	.	.	8C
.	4f#	4c	8BB-
.	.	.	8AA
=62	=62	=62	=62
8cc]	8g	2d	2.GG
8a	8f#	.	.
8b-	4g	.	.
8dd	.	.	.
4ee-	4r	8r	.
.	.	4G	.
4dd	[4b-	.	4GG
.	.	8F	.
=63	=63	=63	=63
4cc#	8b-]	4E	[1AA
.	8a	.	.
4.aa	8ff	2.r	.
.	8dd	.	.
.	4b	.	.
8dd	.	.	.
[4gg	8ee	.	.
.	8cc#	.	.
=64	=64	=64	=64
8gg]	4a	4r	1AA_
8cc#	.	.	.
4.ff	8dd	8F	.
.	8a	8D	.
.	4.b-	4.G	.
8dd	.	.	.
[4ee	.	.	.
.	8g	8C#	.
=65	=65	=65	=65
8ee]	4.a	4.F	2.AA]
8cc#	.	.	.
4.dd	.	.	.
.	8f	8D	.
.	4.e	2A	.
8b	.	.	.
[4cc	.	.	4AA
.	8g	.	.
=66	=66	=66	=66
4cc]	8f#	4D	4.BB-
.	8d	.	.
4b-	4.g	2d	.
.	.	.	8GG
4.a	.	.	[2D
.	8e	.	.
.	[4f	8A	.
8a	.	8F	.
=67	=67	=67	=67
8dd	8f]	[2B-	8D]
8ff	8dd	.	8BB-
8ee	[2cc	.	4C
8gg	.	.	.
8ff	.	8B-]	[2F
8ee	.	8G#	.
[4dd	8cc]	4A	.
.	8cc	.	.
=68	=68	=68	=68
8dd]	8b-	[2d	8F]
4ff	8a	.	8D
.	4g#	.	4E
8ee	.	.	.
8ff	4.a	8d]	[2A
8dd	.	8B	.
[4ee	.	4c	.
.	8e	.	.
=69	=69	=69	=69
8ee]	4a	[2f	8A]
8dd	.	.	8F
8cc	[2g	.	4G
8b	.	.	.
4.cc	.	8f]	[2c
.	.	8d	.
.	8g]	4e-	.
8aa	8cc	.	.
=70	=70	=70	=70
8gg	4a	2d	8c]
8ff#	.	.	8A
8gg	2g	.	2B-
8bb-	.	.	.
4cc#	.	4e	.
4r	4r	4r	4r
=71	=71	=71	=71
2r	2r	2r	2r
4dd	4a	4f	4A
4r	4r	4r	4r
=72	=72	=72	=72
2r	2r	2r	2r
[2dd	2b	[2f	2G#
=73	=73	=73	=73
2dd_	2.a	4f]	2.A
.	.	8e	.
.	.	8d	.
8dd]	.	4e	.
8b	.	.	.
4cc#	.	4r	4AA
.	8g	.	.
=74	=74	=74	=74
4.dd]	8f#	2A	[1D
.	8g	.	.
.	4.a	.	.
8cc	.	.	.
4.b-	.	2d	.
.	8g	.	.
.	[4cc	.	.
8a	.	.	.
=75	=75	=75	=75
2d	8cc]	2B-	1D_
.	8f#	.	.
.	8g	.	.
.	8b-	.	.
8r	2e-	2G	.
8g	.	.	.
8a	.	.	.
[8cc	.	.	.
=76	=76	=76	=76
8cc]	4d	2F#	1D_
8b-	.	.	.
8cc	4A	.	.
4ee-	.	.	.
.	4B-	4G	.
8dd	.	.	.
8ff#	4c	4A	.
[8aa	.	.	.
=77	=77	=77	=77
8aa]	4d	[2B-	1D_
16gg	.	.	.
16aa	.	.	.
8bb-	4.G	.	.
8cc#	.	.	.
[2dd	.	8B-]	.
.	8b-	8d	.
.	8a	8c	.
.	[8g	8B-	.
=78	=78	=78	=78
1dd]	8g]	1A	1D]
.	8f#	.	.
.	8e	.	.
.	8g	.	.
.	2f#	.	.
==	==	==	==
*-	*-	*-	*-
!!!RWG1: This file contains only pitch and duration data.
!!!RWG2: Transposing instruments are not transposed.
!!!RWG3: Spines may have incompatible meters.
!!!RWG4: Durations of rests and tied notes may be interpreted.
!!!RWG: Key is interpreted using the Humdrum key tool.
!!!AFT: stage1
!!!END: 1997/04/15/
!!format changes:
!!content changes:
!!public access: complete
!!!KEY: 513602988
!!!EMD: Converted from MuseData to Humdrum Dec 19, 2000, by Andreas Kornstaedt using muse2kern.
